X: 41359
T: Turnpike, The
R: reel
M: 4/4
K: Gmajor
G2BG A2GE|D3E GABd|g2fd egdB|BAAG AdBA|
G2BG A2GE|D3E GABd|g2fd egdB|AGAB G4:|
gfgd egdB|G2BG gGBG|gfgd egdB|A/A/ABG ABcd|
ggfg egdB|cdef g2fg|gfgd egdB|AGAB G4:|

